;FLAVOR:Marlin
;TIME:3834
;Filament used: 1.3415m
;Layer height: 0.12
;MINX:90.076
;MINY:95.318
;MINZ:0.12
;MAXX:184.932
;MAXY:134.182
;MAXZ:5.52
;TARGET_MACHINE.NAME:Creality Ender-3
;Generated with Cura_SteamEngine 5.6.0
M140 S50
M105
M190 S50
M104 S205
M105
M109 S205
M82 ;absolute extrusion mode
; Ender 3 Custom Start G-code
G92 E0 ; Reset Extruder
G28 ; Home all axes
G1 Z2.0 F3000 ; Move Z Axis up little to prevent scratching of Heat Bed
G1 X0.1 Y20 Z0.3 F5000.0 ; Move to start position
G1 X0.1 Y200.0 Z0.3 F1500.0 E15 ; Draw the first line
G1 X0.4 Y200.0 Z0.3 F5000.0 ; Move to side a little
G1 X0.4 Y20 Z0.3 F1500.0 E30 ; Draw the second line
G92 E0 ; Reset Extruder
G1 Z2.0 F3000 ; Move Z Axis up little to prevent scratching of Heat Bed
G1 X5 Y20 Z0.3 F5000.0 ; Move over to prevent blob squish
G92 E0
G92 E0
G1 F2700 E-5
;LAYER_COUNT:46
;LAYER:0
M107
G0 F6000 X96.153 Y100.359 Z0.12
;TYPE:SKIRT
G1 F2700 E0
G1 F1200 X96.754 Y99.826 E0.01603
G1 X97.238 Y99.43 E0.02851
G1 X97.863 Y98.954 E0.04419
G1 X98.383 Y98.588 E0.05688
G1 X99.063 Y98.148 E0.07304
G1 X99.59 Y97.835 E0.08527
G1 X100.282 Y97.457 E0.10101
G1 X100.854 Y97.173 E0.11375
G1 X101.582 Y96.844 E0.1297
G1 X102.149 Y96.612 E0.14192
G1 X102.872 Y96.348 E0.15728
G1 X103.466 Y96.156 E0.16974
G1 X104.218 Y95.943 E0.18534
G1 X104.837 Y95.793 E0.19805
G1 X105.638 Y95.63 E0.21436
G1 X106.245 Y95.531 E0.22663
G1 X106.99 Y95.437 E0.24162
G1 X107.497 Y95.391 E0.25178
G1 X108.269 Y95.348 E0.26721
G1 X109.938 Y95.318 E0.30052
G1 X129.28 Y95.318 E0.68651
G1 X130.179 Y95.329 E0.70445
G1 X130.738 Y95.352 E0.71562
G1 X132.087 Y95.442 E0.7426
G1 X133.304 Y95.546 E0.76697
G1 X135.799 Y95.68 E0.81683
G1 X138.302 Y95.747 E0.8668
G1 X140.827 Y95.741 E0.91719
G1 X143.352 Y95.665 E0.9676
G1 X145.84 Y95.521 E1.01734
G1 X147.067 Y95.416 E1.04191
G1 X147.75 Y95.369 E1.05558
G1 X148.268 Y95.348 E1.06592
G1 X149.952 Y95.318 E1.09953
G1 X169.418 Y95.319 E1.488
G1 X170.187 Y95.329 E1.50335
G1 X171.128 Y95.376 E1.52215
G1 X172.172 Y95.494 E1.54311
G1 X172.582 Y95.561 E1.5514
G1 X173.744 Y95.818 E1.57515
G1 X174.181 Y95.942 E1.58422
G1 X175.019 Y96.216 E1.60181
G1 X175.501 Y96.397 E1.61209
G1 X176.389 Y96.776 E1.63136
G1 X177.131 Y97.162 E1.64805
G1 X177.759 Y97.526 E1.66253
G1 X178.167 Y97.78 E1.67212
G1 X178.911 Y98.292 E1.69015
G1 X179.367 Y98.652 E1.70174
G1 X179.844 Y99.053 E1.71418
G1 X180.56 Y99.712 E1.7336
G1 X181.188 Y100.398 E1.75216
G1 X181.586 Y100.873 E1.76452
G1 X182.431 Y102.029 E1.7931
G1 X182.615 Y102.321 E1.79999
G1 X182.959 Y102.903 E1.81348
G1 X183.228 Y103.394 E1.82465
G1 X183.627 Y104.204 E1.84267
G1 X183.876 Y104.816 E1.85585
G1 X184.072 Y105.343 E1.86707
G1 X184.366 Y106.258 E1.88625
G1 X184.502 Y106.819 E1.89777
G1 X184.66 Y107.555 E1.9128
G1 X184.822 Y108.521 E1.93234
G1 X184.902 Y109.644 E1.95481
G1 X184.93 Y111.225 E1.98637
G1 X184.932 Y118.561 E2.13276
G1 X184.922 Y119.402 E2.14955
G1 X184.873 Y120.377 E2.16903
G1 X184.756 Y121.422 E2.19001
G1 X184.689 Y121.832 E2.1983
G1 X184.432 Y122.994 E2.22205
G1 X184.308 Y123.431 E2.23112
G1 X184.034 Y124.269 E2.24871
G1 X183.853 Y124.751 E2.25899
G1 X183.474 Y125.639 E2.27826
G1 X183.088 Y126.381 E2.29495
G1 X182.724 Y127.009 E2.30943
G1 X182.47 Y127.417 E2.31902
G1 X181.958 Y128.161 E2.33705
G1 X181.598 Y128.617 E2.34864
G1 X181.197 Y129.094 E2.36108
G1 X180.538 Y129.81 E2.3805
G1 X179.852 Y130.438 E2.39906
G1 X179.377 Y130.836 E2.41142
G1 X178.221 Y131.681 E2.44
G1 X177.929 Y131.865 E2.44689
G1 X177.347 Y132.209 E2.46038
G1 X176.856 Y132.478 E2.47155
G1 X176.046 Y132.877 E2.48957
G1 X175.434 Y133.126 E2.50275
G1 X174.907 Y133.322 E2.51397
G1 X173.992 Y133.616 E2.53315
G1 X173.422 Y133.754 E2.54486
G1 X172.684 Y133.912 E2.55992
G1 X171.715 Y134.074 E2.57952
G1 X170.604 Y134.152 E2.60175
G1 X169.026 Y134.18 E2.63325
G1 X149.895 Y134.182 E3.01503
G1 X148.436 Y134.158 E3.04415
G1 X147.76 Y134.124 E3.05765
G1 X146.773 Y134.043 E3.07742
G1 X144.173 Y133.868 E3.12942
G1 X141.631 Y133.768 E3.18019
G1 X139.139 Y133.741 E3.22992
G1 X136.641 Y133.785 E3.27978
G1 X134.097 Y133.902 E3.3306
G1 X131.112 Y134.127 E3.39034
G1 X130.514 Y134.154 E3.40228
G1 X129.026 Y134.18 E3.43198
G1 X109.895 Y134.182 E3.81376
G1 X108.429 Y134.158 E3.84302
G1 X107.749 Y134.124 E3.85661
G1 X107.212 Y134.078 E3.86737
G1 X106.552 Y134.004 E3.88062
G1 X105.998 Y133.923 E3.89179
G1 X105.33 Y133.803 E3.90534
G1 X104.827 Y133.698 E3.91559
G1 X104.105 Y133.522 E3.93042
G1 X103.494 Y133.346 E3.94311
G1 X102.986 Y133.182 E3.95376
G1 X102.128 Y132.866 E3.97201
G1 X101.541 Y132.621 E3.9847
G1 X100.567 Y132.175 E4.00608
G1 X99.664 Y131.699 E4.02645
G1 X99.168 Y131.407 E4.03794
G1 X98.429 Y130.928 E4.05551
G1 X97.671 Y130.39 E4.07406
G1 X97.005 Y129.875 E4.09086
G1 X96.386 Y129.346 E4.10711
G1 X96.106 Y129.092 E4.11466
G1 X95.629 Y128.63 E4.12791
G1 X95.266 Y128.256 E4.13831
G1 X94.68 Y127.598 E4.15589
G1 X94.144 Y126.943 E4.17278
G1 X93.568 Y126.172 E4.19199
G1 X93.021 Y125.348 E4.21173
G1 X92.718 Y124.858 E4.22322
G1 X92.273 Y124.07 E4.24128
G1 X91.964 Y123.44 E4.25529
G1 X91.588 Y122.611 E4.27345
G1 X91.224 Y121.699 E4.29305
G1 X91.024 Y121.119 E4.30529
G1 X90.766 Y120.268 E4.32304
G1 X90.541 Y119.379 E4.34134
G1 X90.414 Y118.765 E4.35385
G1 X90.329 Y118.283 E4.36362
G1 X90.231 Y117.609 E4.37721
G1 X90.171 Y117.07 E4.38803
G1 X90.123 Y116.498 E4.39949
G1 X90.082 Y115.599 E4.41745
G1 X90.076 Y114.781 E4.43377
G1 X90.1 Y113.526 E4.45882
G1 X90.142 Y112.696 E4.4754
G1 X90.217 Y111.979 E4.48979
G1 X90.301 Y111.365 E4.50216
G1 X90.433 Y110.609 E4.51747
G1 X90.558 Y110.016 E4.52957
G1 X90.764 Y109.207 E4.54623
G1 X90.948 Y108.587 E4.55913
G1 X91.19 Y107.863 E4.57437
G1 X91.41 Y107.278 E4.58684
G1 X91.727 Y106.526 E4.60312
G1 X91.991 Y105.963 E4.61553
G1 X92.339 Y105.284 E4.63076
G1 X92.64 Y104.744 E4.6431
G1 X93.051 Y104.07 E4.65885
G1 X93.392 Y103.556 E4.67116
G1 X93.847 Y102.921 E4.68675
G1 X94.239 Y102.415 E4.69952
G1 X94.761 Y101.79 E4.71577
G1 X95.171 Y101.336 E4.72798
G1 X95.709 Y100.783 E4.74338
G1 X96.153 Y100.359 E4.75563
G0 F6000 X96.418 Y100.658
G1 F1200 X97.008 Y100.135 E4.77136
G1 X97.48 Y99.748 E4.78354
G1 X98.094 Y99.281 E4.79894
G1 X98.6 Y98.924 E4.8113
G1 X99.267 Y98.492 E4.82716
G1 X99.782 Y98.186 E4.83911
G1 X100.46 Y97.815 E4.85453
G1 X101.019 Y97.537 E4.86699
G1 X101.733 Y97.214 E4.88263
G1 X102.286 Y96.988 E4.89455
G1 X102.995 Y96.729 E4.90962
G1 X103.575 Y96.541 E4.92178
G1 X104.313 Y96.332 E4.93709
G1 X104.917 Y96.185 E4.9495
G1 X105.703 Y96.025 E4.9655
G1 X106.296 Y95.928 E4.97749
G1 X107.026 Y95.835 E4.99218
G1 X107.519 Y95.79 E5.00206
G1 X108.276 Y95.748 E5.01719
G1 X109.945 Y95.718 E5.0505
G1 X129.275 Y95.718 E5.43625
G1 X130.163 Y95.729 E5.45398
G1 X130.711 Y95.751 E5.46492
G1 X132.053 Y95.841 E5.49176
G1 X133.27 Y95.944 E5.51613
G1 X135.788 Y96.08 E5.56646
G1 X138.292 Y96.147 E5.61645
G1 X140.839 Y96.141 E5.66727
G1 X143.364 Y96.065 E5.71769
G1 X145.874 Y95.919 E5.76786
G1 X147.094 Y95.815 E5.79229
G1 X147.766 Y95.769 E5.80574
G1 X148.275 Y95.748 E5.8159
G1 X149.952 Y95.718 E5.84937
G1 X169.413 Y95.719 E6.23774
G1 X170.167 Y95.729 E6.25279
G1 X171.108 Y95.776 E6.27159
G1 X172.108 Y95.889 E6.29167
G1 X172.496 Y95.952 E6.29952
G1 X173.635 Y96.203 E6.32279
G1 X174.057 Y96.322 E6.33154
G1 X174.878 Y96.59 E6.34878
G1 X175.344 Y96.765 E6.35871
G1 X176.204 Y97.131 E6.37736
G1 X176.946 Y97.517 E6.39405
G1 X177.547 Y97.865 E6.40791
G1 X177.94 Y98.11 E6.41716
G1 X178.684 Y98.622 E6.43518
G1 X179.11 Y98.959 E6.44602
G1 X179.574 Y99.348 E6.4581
G1 X180.265 Y99.982 E6.47682
G1 X180.881 Y100.655 E6.49502
G1 X181.279 Y101.13 E6.50739
G1 X182.093 Y102.243 E6.53491
G1 X182.271 Y102.525 E6.54156
G1 X182.608 Y103.095 E6.55478
G1 X182.869 Y103.571 E6.56561
G1 X183.268 Y104.381 E6.58363
G1 X183.501 Y104.955 E6.59599
G1 X183.691 Y105.466 E6.60687
G1 X183.977 Y106.353 E6.62547
G1 X184.111 Y106.903 E6.63677
G1 X184.266 Y107.622 E6.65144
G1 X184.423 Y108.55 E6.67023
G1 X184.502 Y109.651 E6.69225
G1 X184.53 Y111.225 E6.72367
G1 X184.532 Y118.556 E6.86997
G1 X184.522 Y119.382 E6.88645
G1 X184.475 Y120.333 E6.90546
G1 X184.361 Y121.358 E6.92604
G1 X184.298 Y121.746 E6.93388
G1 X184.047 Y122.885 E6.95716
G1 X183.928 Y123.307 E6.96591
G1 X183.66 Y124.128 E6.98314
G1 X183.485 Y124.594 E6.99307
G1 X183.119 Y125.454 E7.01173
G1 X182.733 Y126.196 E7.02842
G1 X182.385 Y126.797 E7.04228
G1 X182.14 Y127.19 E7.05152
G1 X181.628 Y127.934 E7.06954
G1 X181.291 Y128.36 E7.08038
G1 X180.902 Y128.824 E7.09246
G1 X180.268 Y129.515 E7.11118
G1 X179.595 Y130.131 E7.12939
G1 X179.12 Y130.529 E7.14175
G1 X178.007 Y131.343 E7.16927
G1 X177.725 Y131.521 E7.17593
G1 X177.155 Y131.858 E7.18914
G1 X176.679 Y132.119 E7.19997
G1 X175.869 Y132.518 E7.21799
G1 X175.295 Y132.751 E7.23035
G1 X174.784 Y132.941 E7.24123
G1 X173.897 Y133.227 E7.25983
G1 X173.338 Y133.363 E7.27131
G1 X172.617 Y133.518 E7.28603
G1 X171.687 Y133.675 E7.30485
G1 X170.597 Y133.752 E7.32666
G1 X169.026 Y133.78 E7.35801
G1 X149.902 Y133.782 E7.73965
G1 X148.456 Y133.758 E7.76852
G1 X147.793 Y133.725 E7.78176
G1 X146.806 Y133.644 E7.80153
G1 X144.189 Y133.468 E7.85387
G1 X141.647 Y133.368 E7.90464
G1 X139.136 Y133.341 E7.95475
G1 X136.623 Y133.385 E8.00491
G1 X134.079 Y133.502 E8.05573
G1 X131.094 Y133.727 E8.11547
G1 X130.507 Y133.754 E8.12719
G1 X129.026 Y133.78 E8.15675
G1 X109.902 Y133.782 E8.53839
G1 X108.449 Y133.758 E8.56739
G1 X107.782 Y133.725 E8.58072
G1 X107.257 Y133.681 E8.59123
G1 X106.61 Y133.608 E8.60423
G1 X106.068 Y133.529 E8.61516
G1 X105.412 Y133.412 E8.62845
G1 X104.922 Y133.309 E8.63845
G1 X104.2 Y133.133 E8.65328
G1 X103.616 Y132.965 E8.6654
G1 X103.124 Y132.807 E8.67572
G1 X102.282 Y132.497 E8.69362
G1 X101.707 Y132.257 E8.70606
G1 X100.753 Y131.821 E8.72699
G1 X99.867 Y131.355 E8.74697
G1 X99.386 Y131.071 E8.75811
G1 X98.647 Y130.592 E8.77569
G1 X97.915 Y130.073 E8.79359
G1 X97.265 Y129.571 E8.80998
G1 X96.655 Y129.05 E8.82599
G1 X96.384 Y128.804 E8.8333
G1 X95.916 Y128.352 E8.84628
G1 X95.565 Y127.99 E8.85634
G1 X94.99 Y127.345 E8.87359
G1 X94.454 Y126.69 E8.89048
G1 X93.901 Y125.95 E8.90891
G1 X93.361 Y125.138 E8.92837
G1 X93.066 Y124.661 E8.93957
G1 X92.632 Y123.893 E8.95717
G1 X92.328 Y123.275 E8.97091
G1 X91.96 Y122.463 E8.9887
G1 X91.596 Y121.551 E9.0083
G1 X91.407 Y121.003 E9.01987
G1 X91.154 Y120.17 E9.03724
G1 X90.933 Y119.298 E9.05519
G1 X90.808 Y118.695 E9.06748
G1 X90.725 Y118.226 E9.07699
G1 X90.629 Y117.565 E9.09032
G1 X90.57 Y117.036 E9.10094
G1 X90.523 Y116.479 E9.11209
G1 X90.482 Y115.596 E9.12973
G1 X90.476 Y114.788 E9.14586
G1 X90.499 Y113.546 E9.17065
G1 X90.54 Y112.737 E9.18681
G1 X90.613 Y112.033 E9.20094
G1 X90.695 Y111.434 E9.213
G1 X90.824 Y110.692 E9.22803
G1 X90.946 Y110.114 E9.23982
G1 X91.147 Y109.321 E9.25615
G1 X91.327 Y108.714 E9.26878
G1 X91.564 Y108.004 E9.28372
G1 X91.779 Y107.433 E9.2959
G1 X92.089 Y106.696 E9.31185
G1 X92.347 Y106.145 E9.32399
G1 X92.688 Y105.479 E9.33893
G1 X92.982 Y104.952 E9.35097
G1 X93.385 Y104.291 E9.36642
G1 X93.717 Y103.789 E9.37843
G1 X94.163 Y103.166 E9.39372
G1 X94.546 Y102.671 E9.40621
G1 X95.058 Y102.058 E9.42215
G1 X95.458 Y101.615 E9.43406
G1 X95.985 Y101.072 E9.44916
G1 X96.418 Y100.658 E9.46111
G0 F6000 X96.684 Y100.957
G1 F1200 X97.262 Y100.444 E9.47654
G1 X97.722 Y100.066 E9.48842
G1 X98.324 Y99.608 E9.50351
G1 X98.818 Y99.26 E9.51557
G1 X99.472 Y98.836 E9.53113
G1 X99.974 Y98.537 E9.54279
G1 X100.639 Y98.173 E9.55791
G1 X101.184 Y97.901 E9.57007
G1 X101.884 Y97.584 E9.5854
G1 X102.423 Y97.364 E9.59702
G1 X103.132 Y97.105 E9.61209
G1 X103.684 Y96.926 E9.62367
G1 X104.408 Y96.721 E9.63868
G1 X104.997 Y96.577 E9.65078
G1 X105.768 Y96.42 E9.66648
G1 X106.347 Y96.325 E9.67819
G1 X107.063 Y96.233 E9.6926
G1 X107.541 Y96.189 E9.70218
G1 X108.283 Y96.148 E9.71701
G1 X109.952 Y96.118 E9.75032
G1 X129.27 Y96.118 E10.13583
G1 X130.147 Y96.129 E10.15334
G1 X130.684 Y96.15 E10.16406
G1 X132.02 Y96.24 E10.19078
G1 X133.237 Y96.342 E10.21515
G1 X135.777 Y96.48 E10.26592
G1 X138.282 Y96.547 E10.31592
G1 X140.851 Y96.541 E10.36719
G1 X143.376 Y96.465 E10.4176
G1 X145.908 Y96.317 E10.46822
G1 X147.121 Y96.214 E10.49251
G1 X147.783 Y96.169 E10.50575
G1 X148.282 Y96.148 E10.51572
G1 X149.952 Y96.118 E10.54905
G1 X169.408 Y96.119 E10.93732
G1 X170.147 Y96.129 E10.95207
G1 X171.063 Y96.174 E10.97037
G1 X172.044 Y96.284 E10.99007
G1 X172.41 Y96.343 E10.99747
G1 X173.549 Y96.594 E11.02074
G1 X173.933 Y96.702 E11.0287
G1 X174.738 Y96.965 E11.0456
G1 X175.188 Y97.133 E11.05519
G1 X176.02 Y97.486 E11.07323
G1 X176.746 Y97.863 E11.08955
G1 X177.335 Y98.204 E11.10313
G1 X177.713 Y98.44 E11.11203
G1 X178.457 Y98.952 E11.13005
G1 X178.853 Y99.266 E11.14013
G1 X179.304 Y99.643 E11.15186
G1 X179.97 Y100.252 E11.16987
G1 X180.575 Y100.912 E11.18774
G1 X180.956 Y101.366 E11.19957
G1 X181.755 Y102.457 E11.22656
G1 X181.927 Y102.728 E11.23296
G1 X182.257 Y103.287 E11.24592
G1 X182.51 Y103.748 E11.25641
G1 X182.909 Y104.558 E11.27443
G1 X183.126 Y105.095 E11.28599
G1 X183.31 Y105.589 E11.29651
G1 X183.588 Y106.448 E11.31452
G1 X183.72 Y106.988 E11.32562
G1 X183.872 Y107.689 E11.33993
G1 X184.024 Y108.579 E11.35795
G1 X184.102 Y109.658 E11.37954
G1 X184.13 Y111.225 E11.41082
G1 X184.132 Y118.551 E11.55701
G1 X184.122 Y119.363 E11.57322
G1 X184.077 Y120.289 E11.59172
G1 X183.966 Y121.294 E11.6119
G1 X183.907 Y121.66 E11.6193
G1 X183.656 Y122.799 E11.64257
G1 X183.548 Y123.183 E11.65053
G1 X183.285 Y123.988 E11.66743
G1 X183.117 Y124.438 E11.67702
G1 X182.764 Y125.27 E11.69505
G1 X182.387 Y125.996 E11.71138
G1 X182.046 Y126.585 E11.72496
G1 X181.81 Y126.963 E11.73385
G1 X181.298 Y127.707 E11.75188
G1 X180.984 Y128.103 E11.76196
G1 X180.607 Y128.554 E11.77369
G1 X179.998 Y129.22 E11.7917
G1 X179.338 Y129.825 E11.80957
G1 X178.884 Y130.206 E11.8214
G1 X177.793 Y131.005 E11.84838
G1 X177.522 Y131.177 E11.85479
G1 X176.963 Y131.507 E11.86774
G1 X176.502 Y131.76 E11.87824
G1 X175.692 Y132.159 E11.89626
G1 X175.155 Y132.376 E11.90782
G1 X174.661 Y132.56 E11.91834
G1 X173.802 Y132.838 E11.93635
G1 X173.254 Y132.972 E11.94761
G1 X172.55 Y133.124 E11.96198
G1 X171.659 Y133.276 E11.98002
G1 X170.59 Y133.352 E12.00141
G1 X169.026 Y133.38 E12.03262
G1 X149.909 Y133.382 E12.41413
G1 X148.476 Y133.358 E12.44273
G1 X147.826 Y133.326 E12.45571
G1 X146.839 Y133.245 E12.47548
G1 X144.205 Y133.068 E12.52816
G1 X141.663 Y132.968 E12.57893
G1 X139.133 Y132.941 E12.62942
G1 X136.605 Y132.985 E12.67988
G1 X134.061 Y133.102 E12.7307
G1 X131.075 Y133.327 E12.79045
G1 X130.5 Y133.354 E12.80194
G1 X129.026 Y133.38 E12.83136
G1 X109.909 Y133.382 E13.21286
G1 X108.469 Y133.358 E13.2416
G1 X107.815 Y133.326 E13.25467
G1 X107.302 Y133.284 E13.26494
G1 X106.668 Y133.212 E13.27768
G1 X106.138 Y133.135 E13.28836
G1 X105.495 Y133.021 E13.3014
G1 X105.017 Y132.92 E13.31114
G1 X104.31 Y132.748 E13.32567
G1 X103.738 Y132.584 E13.33754
G1 X103.262 Y132.432 E13.34751
G1 X102.436 Y132.128 E13.36508
G1 X101.873 Y131.893 E13.37725
G1 X100.939 Y131.467 E13.39774
G1 X100.07 Y131.01 E13.41733
G1 X99.603 Y130.735 E13.42815
G1 X98.878 Y130.266 E13.44538
G1 X98.159 Y129.756 E13.46297
G1 X97.525 Y129.267 E13.47895
G1 X96.924 Y128.754 E13.49472
G1 X96.662 Y128.516 E13.50178
G1 X96.203 Y128.073 E13.51451
G1 X95.864 Y127.724 E13.52422
G1 X95.289 Y127.079 E13.54146
G1 X94.774 Y126.45 E13.55769
G1 X94.234 Y125.728 E13.57568
G1 X93.701 Y124.928 E13.59486
G1 X93.414 Y124.464 E13.60575
G1 X92.991 Y123.716 E13.6229
G1 X92.692 Y123.11 E13.63638
G1 X92.331 Y122.315 E13.65381
G1 X91.974 Y121.421 E13.67302
G1 X91.79 Y120.887 E13.68429
G1 X91.542 Y120.072 E13.70129
G1 X91.325 Y119.216 E13.71891
G1 X91.202 Y118.625 E13.73096
G1 X91.121 Y118.169 E13.7402
G1 X91.027 Y117.52 E13.75329
G1 X90.969 Y117.002 E13.76369
G1 X90.923 Y116.46 E13.77455
G1 X90.882 Y115.593 E13.79187
G1 X90.876 Y114.795 E13.80779
G1 X90.898 Y113.566 E13.83232
G1 X90.938 Y112.778 E13.84807
G1 X91.009 Y112.087 E13.86193
G1 X91.089 Y111.502 E13.87371
G1 X91.215 Y110.775 E13.88844
G1 X91.334 Y110.212 E13.89992
G1 X91.531 Y109.434 E13.91594
G1 X91.706 Y108.841 E13.92828
G1 X91.939 Y108.145 E13.94292
G1 X92.148 Y107.588 E13.9548
